!!!SOCIAL_FUNCTION:	bird dance songs
!!!PDT:	1932
!!!OTL: No_100_Song_in_the_Early_Evening_(a).krn
!!!REG: Southwest
!!!LANG: Non-Tone
!!!LING_GROUP: Yuman-Cochimi
**kern	**kern
*staff2	*staff1
=1-	=1-
*clefF4	*clefF4
*k[b-e-]	*k[b-e-]
*M2/4	*M2/4
16GG/LK	8r
8GG/	.
.	16r
16GG/Jk	16D\
16GG/LK	12D\L
8GG/	.
.	12D\
.	12A\J
16GG/Jk	.
=2	=2
16GG/LK	16A\LK
8GG/	8B-\
16GG/Jk	16G\Jk
4r	12G\L
.	12G\
.	12B-\J
=3	=3
2r	8.A\L
.	16B-\Jk
.	16A\LK
.	8B-\
.	16G\Jk
=4	=4
2r	4G\
.	16D\LL
.	16D\
.	16D\
.	16D\JJ
=5	=5
2r	8G\
.	4r
.	16.D\LL
.	32A\JJk
=6	=6
2r	16A\LK
.	8B-\
.	16G\Jk
.	12G\L
.	12G\
.	12B-\J
=7	=7
2r	8.A\L
.	16B-\Jk
.	16A\LK
.	8B-\
.	16G\Jk
=8	=8
2r	4G\
.	16D\LL
.	16D\
.	16D\
.	16D\JJ
=9	=9
2r	8G\
.	8r
.	12D\L
.	12D\
.	12A\J
=10	=10
2r	16A\LK
.	8B-\
.	16G\Jk
.	12G\L
.	12G\
.	12B-\J
=11	=11
2r	8.A\L
.	16B-\Jk
.	16A\LK
.	8B-\
.	16G\Jk
=12	=12
2r	4G\
.	16D\LL
.	16D\
.	16D\
.	16D\JJ
=13	=13
2r	8G\
.	4r
.	16.D\LL
.	32A\JJk
=14	=14
2r	16A\LK
.	8B-\
.	16G\Jk
.	12G\L
.	12G\
.	12B-\J
=15	=15
2r	8.A\L
.	16B-\Jk
.	16A\LK
.	8B-\
.	16G\Jk
=16	=16
2r	4G\
.	16D\LL
.	16D\
.	16D\
.	16D\JJ
=17	=17
2r	8G\
.	8r
.	4r
=18	=18
2r	2r
=19	=19
2r	4r
.	8.G\L
.	16B-\Jk
=20	=20
2r	4B-\
.	8B-\L
.	8A\J
=21	=21
2r	12A\L
.	12c\
.	12c\J
.	8.B-\L
.	16A\Jk
=22	=22
2r	16A\LL
.	16B-\JJ
.	8r
.	12G\L
.	12G\
.	12B-\J
=23	=23
2r	8.A\L
.	16B-\Jk
.	16G\LK
.	8B-\
.	16G\Jk
=24	=24
2r	4G\
.	16D\LL
.	16D\
.	16D\
.	16D\JJ
=25	=25
2r	8G\
.	8r
.	16D\LL
.	16D\
.	16D\
.	16A\JJ
=26	=26
2r	16A\LK
.	8B-\
.	16G\Jk
.	12G\L
.	12G\
.	12B-\J
=27	=27
2r	8.A\L
.	16B-\Jk
.	16A\LK
.	8B-\
.	16G\Jk
=28	=28
2r	4G\
.	16D\LL
.	16D\
.	16D\
.	16D\JJ
=29	=29
2r	4.G\
.	8r
==	==
*-	*-
